X: 24281
T: Lost And Found, The
R: jig
M: 6/8
K: Gmajor
|:G3 dGG|edB dBA|G3 deg|edB dBA|
G3 dGG|edB def|gfe dBA|Bee dBA:|
|:g3 bge|f3 afd|g3 bge|edB GB/c/d|
g3 bge|f3 a3|bag agf|efg edB:|

